X:230
T: ICH STAND AUF HOHEM BERGE
N: E0115A
O: Europa, Mitteleuropa, Deutschland, Bergisches Land, Langenberg
R: erzaehlendes Volks - Lied, Schalk -, Schelmen - Lied, betrogene Liebe
M: 3/4
L: 1/8
K: G
D2 | G3ABB | BAA2
BA | G3GBB | A4
Bd | d2B2Bd | d2B2
Bd | c3Add | B4

@@@ Tune index: 3880
